SVG_Azure_All/Event Grid System Topic.svg

<?xml version="1.0" encoding="UTF-8" standalone="no"?>
<!DOCTYPE svg PUBLIC "-//W3C//DTD SVG 1.1//EN" "http://www.w3.org/Graphics/SVG/1.1/DTD/svg11.dtd">
<!-- Generated by Microsoft Visio, SVG Export Event Grid System Topic.svg Page-1 -->
<svg xmlns="http://www.w3.org/2000/svg" xmlns:xlink="http://www.w3.org/1999/xlink" xmlns:ev="http://www.w3.org/2001/xml-events"
		width="1.73187in" height="1.65332in" viewBox="0 0 124.695 119.039" xml:space="preserve" color-interpolation-filters="sRGB"
		class="st9">
	<style type="text/css">
	<![CDATA[
		.st1 {fill:#a3a3a3;stroke:none;stroke-linecap:butt;stroke-width:34}
		.st2 {fill:#a3a3a3;fill-opacity:0.5;stroke:none;stroke-linecap:butt;stroke-width:34}
		.st3 {fill:#949494;stroke:none;stroke-linecap:butt;stroke-width:34}
		.st4 {fill:url(#grad0-26);stroke:none;stroke-linecap:butt;stroke-width:34}
		.st5 {fill:url(#grad0-30);stroke:none;stroke-linecap:butt;stroke-width:34}
		.st6 {fill:url(#grad0-34);stroke:none;stroke-linecap:butt;stroke-width:34}
		.st7 {fill:url(#grad0-38);stroke:none;stroke-linecap:butt;stroke-width:34}
		.st8 {fill:url(#grad0-42);stroke:none;stroke-linecap:butt;stroke-width:34}
		.st9 {fill:none;fill-rule:evenodd;font-size:12px;overflow:visible;stroke-linecap:square;stroke-miterlimit:3}
	]]>
	</style>

	<defs id="Patterns_And_Gradients">
		<linearGradient id="grad0-26" x1="0" y1="0" x2="1" y2="0" gradientTransform="rotate(-90 0.5 0.5)">
			<stop offset="0" stop-color="#773adc" stop-opacity="1"/>
			<stop offset="1" stop-color="#a67af4" stop-opacity="1"/>
		</linearGradient>
		<linearGradient id="grad0-30" x1="0" y1="0" x2="1" y2="0" gradientTransform="rotate(-87.919771396189 0.5 0.5)">
			<stop offset="0" stop-color="#5e9624" stop-opacity="1"/>
			<stop offset="1" stop-color="#76bc2d" stop-opacity="1"/>
		</linearGradient>
		<linearGradient id="grad0-34" x1="0" y1="0" x2="1" y2="0" gradientTransform="rotate(-88.578641194444 0.5 0.5)">
			<stop offset="0" stop-color="#5e9624" stop-opacity="1"/>
			<stop offset="1" stop-color="#76bc2d" stop-opacity="1"/>
		</linearGradient>
		<linearGradient id="grad0-38" x1="0" y1="0" x2="1" y2="0" gradientTransform="rotate(-88.585017602513 0.5 0.5)">
			<stop offset="0" stop-color="#5e9624" stop-opacity="1"/>
			<stop offset="1" stop-color="#76bc2d" stop-opacity="1"/>
		</linearGradient>
		<linearGradient id="grad0-42" x1="0" y1="0" x2="1" y2="0" gradientTransform="rotate(-87.922088457562 0.5 0.5)">
			<stop offset="0" stop-color="#5e9624" stop-opacity="1"/>
			<stop offset="1" stop-color="#76bc2d" stop-opacity="1"/>
		</linearGradient>
	</defs>
	<g>
		<title>Page-1</title>
		<g id="group5095-1" transform="translate(34.002,-34.0157)">
			<title>Event Grid System Topic</title>
			<g id="group5096-2">
				<title>Sheet.5096</title>
				<g id="shape5097-3" transform="translate(-5.64548E-14,-37.9901)">
					<title>Sheet.5097</title>
					<path d="M1.93 106.03 L6.22 106.03 L6.22 118.07 a0.96378 0.973697 0 0 1 -0.96378 0.973697 L0.97 119.04 a0.96378
								 0.973697 0 0 1 -0.966929 -0.973697 L0 107.98 A1.88976 1.90921 0 0 1 1.86 106.03 L1.93 106.03 Z"
							class="st1"/>
				</g>
				<g id="shape5098-5" transform="translate(-5.64548E-14,-37.9901)">
					<title>Sheet.5098</title>
					<path d="M1.93 106.03 L6.22 106.03 L6.22 118.07 a0.96378 0.973697 0 0 1 -0.96378 0.973697 L0.97 119.04 a0.96378
								 0.973697 0 0 1 -0.966929 -0.973697 L0 107.98 A1.88976 1.90921 0 0 1 1.86 106.03 L1.93 106.03 Z"
							class="st2"/>
				</g>
				<g id="shape5099-7" transform="translate(50.4724,-37.9964)">
					<title>Sheet.5099</title>
					<path d="M0 106.04 L4.29 106.04 A1.88976 1.90921 0 0 1 6.18 107.95 L6.18 118.07 a0.96378 0.973697 0 0 1 -0.96378
								 0.973697 L0.96 119.04 a0.96378 0.973697 0 0 1 -0.96378 -0.973697 L0 106.04 Z" class="st1"/>
				</g>
				<g id="shape5100-9" transform="translate(50.4724,-37.9964)">
					<title>Sheet.5100</title>
					<path d="M0 106.04 L4.29 106.04 A1.88976 1.90921 0 0 1 6.18 107.95 L6.18 118.07 a0.96378 0.973697 0 0 1 -0.96378
								 0.973697 L0.96 119.04 a0.96378 0.973697 0 0 1 -0.96378 -0.973697 L0 106.04 Z" class="st2"/>
				</g>
				<g id="shape5101-11" transform="translate(0.100787,-44.9142)">
					<title>Sheet.5101</title>
					<path d="M56.56 114.84 L56.56 119.04 L0 119.04 L0 114.84 A1.88976 1.90921 0 0 1 1.89 112.93 L54.66 112.93 A1.88976
								 1.90921 0 0 1 56.56 114.84 Z" class="st3"/>
				</g>
				<g id="shape5102-13" transform="translate(-5.64548E-14,-0.00318202)">
					<title>Sheet.5102</title>
					<path d="M0.97 105.93 L5.26 105.93 a0.96378 0.973697 0 0 1 0.96378 0.973697 L6.22 119.04 L1.93 119.04 A1.88976
								 1.90921 0 0 1 0 117.15 L0 106.97 a0.96378 0.973697 0 0 1 0.897638 -1.03416 L0.97 105.93 Z"
							class="st1"/>
				</g>
				<g id="shape5103-15" transform="translate(-5.64548E-14,-0.00318202)">
					<title>Sheet.5103</title>
					<path d="M0.97 105.93 L5.26 105.93 a0.96378 0.973697 0 0 1 0.96378 0.973697 L6.22 119.04 L1.93 119.04 A1.88976
								 1.90921 0 0 1 0 117.15 L0 106.97 a0.96378 0.973697 0 0 1 0.897638 -1.03416 L0.97 105.93 Z"
							class="st2"/>
				</g>
				<g id="shape5104-17" transform="translate(50.4724,-0.162283)">
					<title>Sheet.5104</title>
					<path d="M0.96 106.09 L5.26 106.09 a0.96378 0.973697 0 0 1 0.96378 0.954605 L6.22 117.13 A1.88976 1.90921 0 0
								 1 4.33 119.04 L0 119.04 L0 107.11 a0.96378 0.973697 0 0 1 0.894488 -1.04052 L0.96 106.09 Z"
							class="st1"/>
				</g>
				<g id="shape5105-19" transform="translate(50.4724,-0.162283)">
					<title>Sheet.5105</title>
					<path d="M0.96 106.09 L5.26 106.09 a0.96378 0.973697 0 0 1 0.96378 0.954605 L6.22 117.13 A1.88976 1.90921 0 0
								 1 4.33 119.04 L0 119.04 L0 107.11 a0.96378 0.973697 0 0 1 0.894488 -1.04052 L0.96 106.09 Z"
							class="st2"/>
				</g>
				<g id="shape5106-21">
					<title>Sheet.5106</title>
					<path d="M0 117.11 L0 112.93 L56.56 112.93 L56.56 117.13 A1.88976 1.90921 0 0 1 54.67 119.04 L1.89 119.04 A1.88976
								 1.90921 0 0 1 -0 117.11 Z" class="st3"/>
				</g>
				<g id="shape5107-23" transform="translate(17.1303,-18.1693)">
					<title>Sheet.5107</title>
					<path d="M31.49 111.14 L24.76 104.26 a0.333858 0.337294 -180 0 0 -0.466142 -0.0604583 a0.330709 0.334112 -180
								 0 0 -0.125984 0.318202 L24.17 108.75 a0.314961 0.318202 0 0 1 -0.289764 0.372296 L7.53 109.12 A3.89606
								 3.93615 -180 0 0 4.46 107.58 C4.32 107.58 4.19 107.57 4.06 107.57 A4.07559 4.11753 -180 0 0 3.68
								 115.78 C3.81 115.79 3.94 115.8 4.07 115.8 C4.2 115.8 4.33 115.8 4.46 115.78 A4.0063 4.04752 -180
								 0 0 7.57 114.21 L23.81 114.21 a0.333858 0.337294 0 0 1 0.314961 0.299109 L24.13 118.69 a0.337008
								 0.340476 -180 0 0 0.314961 0.350022 a0.314961 0.318202 -180 0 0 0.258268 -0.124099 L31.45 112.14
								 a0.740157 0.747774 -180 0 0 0.0409449 -0.999153 Z" class="st4"/>
				</g>
				<g id="shape5108-27" transform="translate(8.64882,-27.0121)">
					<title>Sheet.5108</title>
					<path d="M0 109.23 L0 119.04 L6.15 119.04 A6.52913 6.59632 0 0 1 11.29 113.99 L11.29 107.62 L1.57 107.62 A1.5748
								 1.59101 -180 0 0 0 109.23 Z" class="st5"/>
				</g>
				<g id="shape5109-31" transform="translate(22.5984,-30.6174)">
					<title>Sheet.5109</title>
					<path d="M9.71 111.24 L0 111.24 L0 117.6 A6.48504 6.55177 0 0 1 3.12 119.04 L11.29 119.04 L11.29 112.83 A1.5748
								 1.59101 -180 0 0 9.71 111.24 Z" class="st6"/>
				</g>
				<g id="shape5110-35" transform="translate(22.5984,-12.6899)">
					<title>Sheet.5110</title>
					<path d="M0 112.74 L0 119.04 L9.71 119.04 A1.5748 1.59101 -180 0 0 11.29 117.45 L11.29 111.28 L3.16 111.28 A6.44409
								 6.5104 0 0 1 0 112.74 Z" class="st7"/>
				</g>
				<g id="shape5111-39" transform="translate(8.64882,-12.6899)">
					<title>Sheet.5111</title>
					<path d="M6.15 107.64 L0 107.64 L0 117.45 A1.5748 1.59101 -180 0 0 1.57 119.04 L11.29 119.04 L11.29 112.71 A6.4126
								 6.47858 0 0 1 6.15 107.64 Z" class="st8"/>
				</g>
			</g>
		</g>
	</g>
</svg>

<?xml version="1.0" encoding="UTF-8" standalone="no"?>
<!-- Generated by Microsoft Visio, SVG Export Event Grid System Topic.svg Page-1 -->

<svg
   xmlns:dc="http://purl.org/dc/elements/1.1/"
   xmlns:cc="http://creativecommons.org/ns#"
   xmlns:rdf="http://www.w3.org/1999/02/22-rdf-syntax-ns#"
   xmlns:svg="http://www.w3.org/2000/svg"
   xmlns="http://www.w3.org/2000/svg"
   xmlns:sodipodi="http://sodipodi.sourceforge.net/DTD/sodipodi-0.dtd"
   xmlns:inkscape="http://www.inkscape.org/namespaces/inkscape"
   width="0.78747237in"
   height="0.70866781in"
   viewBox="0 0 56.698172 51.024067"
   xml:space="preserve"
   class="st9"
   version="1.1"
   id="svg115"
   sodipodi:docname="Event Grid System Topic.svg"
   style="font-size:12px;overflow:visible;color-interpolation-filters:sRGB;fill:none;fill-rule:evenodd;stroke-linecap:square;stroke-miterlimit:3"
   inkscape:version="0.92.5 (2060ec1f9f, 2020-04-08)"><metadata
   id="metadata119"><rdf:RDF><cc:Work
       rdf:about=""><dc:format>image/svg+xml</dc:format><dc:type
         rdf:resource="http://purl.org/dc/dcmitype/StillImage" /></cc:Work></rdf:RDF></metadata><sodipodi:namedview
   pagecolor="#ffffff"
   bordercolor="#666666"
   borderopacity="1"
   objecttolerance="10"
   gridtolerance="10"
   guidetolerance="10"
   inkscape:pageopacity="0"
   inkscape:pageshadow="2"
   inkscape:window-width="640"
   inkscape:window-height="480"
   id="namedview117"
   showgrid="false"
   inkscape:zoom="1.4869072"
   inkscape:cx="37.796554"
   inkscape:cy="34.006304"
   inkscape:window-x="0"
   inkscape:window-y="0"
   inkscape:window-maximized="0"
   inkscape:current-layer="svg115" />
	<style
   type="text/css"
   id="style2">
	<![CDATA[
		.st1 {fill:#a3a3a3;stroke:none;stroke-linecap:butt;stroke-width:34}
		.st2 {fill:#a3a3a3;fill-opacity:0.5;stroke:none;stroke-linecap:butt;stroke-width:34}
		.st3 {fill:#949494;stroke:none;stroke-linecap:butt;stroke-width:34}
		.st4 {fill:url(#grad0-26);stroke:none;stroke-linecap:butt;stroke-width:34}
		.st5 {fill:url(#grad0-30);stroke:none;stroke-linecap:butt;stroke-width:34}
		.st6 {fill:url(#grad0-34);stroke:none;stroke-linecap:butt;stroke-width:34}
		.st7 {fill:url(#grad0-38);stroke:none;stroke-linecap:butt;stroke-width:34}
		.st8 {fill:url(#grad0-42);stroke:none;stroke-linecap:butt;stroke-width:34}
		.st9 {fill:none;fill-rule:evenodd;font-size:12px;overflow:visible;stroke-linecap:square;stroke-miterlimit:3}
	]]>
	</style>

	<defs
   id="Patterns_And_Gradients">
		<linearGradient
   id="grad0-26"
   x1="0.033493509"
   y1="151.62216"
   x2="21.743763"
   y2="151.62216"
   gradientTransform="scale(1.4560839,0.68677361)"
   gradientUnits="userSpaceOnUse">
			<stop
   offset="0"
   stop-color="#773adc"
   stop-opacity="1"
   id="stop4" />
			<stop
   offset="1"
   stop-color="#a67af4"
   stop-opacity="1"
   id="stop6" />
		</linearGradient>
		<linearGradient
   id="grad0-30"
   x1="-0.00011290711"
   y1="107.00623"
   x2="11.354758"
   y2="107.00623"
   gradientTransform="scale(0.99429688,1.0057358)"
   gradientUnits="userSpaceOnUse">
			<stop
   offset="0"
   stop-color="#5e9624"
   stop-opacity="1"
   id="stop9" />
			<stop
   offset="1"
   stop-color="#76bc2d"
   stop-opacity="1"
   id="stop11" />
		</linearGradient>
		<linearGradient
   id="grad0-34"
   x1="0"
   y1="133.83213"
   x2="9.3841408"
   y2="133.83213"
   gradientTransform="scale(1.2030936,0.8311905)"
   gradientUnits="userSpaceOnUse">
			<stop
   offset="0"
   stop-color="#5e9624"
   stop-opacity="1"
   id="stop14" />
			<stop
   offset="1"
   stop-color="#76bc2d"
   stop-opacity="1"
   id="stop16" />
		</linearGradient>
		<linearGradient
   id="grad0-38"
   x1="0"
   y1="134.22487"
   x2="9.360048"
   y2="134.22487"
   gradientTransform="scale(1.2061904,0.82905651)"
   gradientUnits="userSpaceOnUse">
			<stop
   offset="0"
   stop-color="#5e9624"
   stop-opacity="1"
   id="stop19" />
			<stop
   offset="1"
   stop-color="#76bc2d"
   stop-opacity="1"
   id="stop21" />
		</linearGradient>
		<linearGradient
   id="grad0-42"
   x1="0"
   y1="107.11943"
   x2="11.344867"
   y2="107.11943"
   gradientTransform="scale(0.99516374,1.0048598)"
   gradientUnits="userSpaceOnUse">
			<stop
   offset="0"
   stop-color="#5e9624"
   stop-opacity="1"
   id="stop24" />
			<stop
   offset="1"
   stop-color="#76bc2d"
   stop-opacity="1"
   id="stop26" />
		</linearGradient>
	</defs>
	<g
   id="g113"
   transform="translate(-34.000005,-34.000263)">
		<title
   id="title30">Page-1</title>
		<g
   id="group5201-1"
   transform="translate(34.002,-34.0157)">
			<title
   id="title32">Event Grid System Topic</title>
			<g
   id="group5202-2">
				<title
   id="title34">Sheet.5202</title>
				<g
   id="shape5203-3"
   transform="translate(0,-37.9901)">
					<title
   id="title36">Sheet.5203</title>
					<path
   d="m 1.93,106.03 h 4.29 v 12.04 a 0.96378,0.973697 0 0 1 -0.96378,0.9737 L 0.97,119.04 A 0.96378,0.973697 0 0 1 0.003071,118.0663 L 0,107.98 a 1.88976,1.90921 0 0 1 1.86,-1.95 z"
   class="st1"
   id="path38"
   inkscape:connector-curvature="0"
   style="fill:#a3a3a3;stroke:none;stroke-width:34;stroke-linecap:butt" />
				</g>
				<g
   id="shape5204-5"
   transform="translate(0,-37.9901)">
					<title
   id="title41">Sheet.5204</title>
					<path
   d="m 1.93,106.03 h 4.29 v 12.04 a 0.96378,0.973697 0 0 1 -0.96378,0.9737 L 0.97,119.04 A 0.96378,0.973697 0 0 1 0.003071,118.0663 L 0,107.98 a 1.88976,1.90921 0 0 1 1.86,-1.95 z"
   class="st2"
   id="path43"
   inkscape:connector-curvature="0"
   style="fill:#a3a3a3;fill-opacity:0.5;stroke:none;stroke-width:34;stroke-linecap:butt" />
				</g>
				<g
   id="shape5205-7"
   transform="translate(50.4724,-37.9964)">
					<title
   id="title46">Sheet.5205</title>
					<path
   d="m 0,106.04 h 4.29 a 1.88976,1.90921 0 0 1 1.89,1.91 v 10.12 a 0.96378,0.973697 0 0 1 -0.96378,0.9737 L 0.96,119.04 a 0.96378,0.973697 0 0 1 -0.96378,-0.9737 z"
   class="st1"
   id="path48"
   inkscape:connector-curvature="0"
   style="fill:#a3a3a3;stroke:none;stroke-width:34;stroke-linecap:butt" />
				</g>
				<g
   id="shape5206-9"
   transform="translate(50.4724,-37.9964)">
					<title
   id="title51">Sheet.5206</title>
					<path
   d="m 0,106.04 h 4.29 a 1.88976,1.90921 0 0 1 1.89,1.91 v 10.12 a 0.96378,0.973697 0 0 1 -0.96378,0.9737 L 0.96,119.04 a 0.96378,0.973697 0 0 1 -0.96378,-0.9737 z"
   class="st2"
   id="path53"
   inkscape:connector-curvature="0"
   style="fill:#a3a3a3;fill-opacity:0.5;stroke:none;stroke-width:34;stroke-linecap:butt" />
				</g>
				<g
   id="shape5207-11"
   transform="translate(0.100787,-44.9142)">
					<title
   id="title56">Sheet.5207</title>
					<path
   d="m 56.56,114.84 v 4.2 H 0 v -4.2 a 1.88976,1.90921 0 0 1 1.89,-1.91 h 52.77 a 1.88976,1.90921 0 0 1 1.9,1.91 z"
   class="st3"
   id="path58"
   inkscape:connector-curvature="0"
   style="fill:#949494;stroke:none;stroke-width:34;stroke-linecap:butt" />
				</g>
				<g
   id="shape5208-13"
   transform="translate(0,-0.00318202)">
					<title
   id="title61">Sheet.5208</title>
					<path
   d="m 0.97,105.93 h 4.29 a 0.96378,0.973697 0 0 1 0.96378,0.9737 L 6.22,119.04 H 1.93 A 1.88976,1.90921 0 0 1 0,117.15 v -10.18 a 0.96378,0.973697 0 0 1 0.897638,-1.03416 z"
   class="st1"
   id="path63"
   inkscape:connector-curvature="0"
   style="fill:#a3a3a3;stroke:none;stroke-width:34;stroke-linecap:butt" />
				</g>
				<g
   id="shape5209-15"
   transform="translate(0,-0.00318202)">
					<title
   id="title66">Sheet.5209</title>
					<path
   d="m 0.97,105.93 h 4.29 a 0.96378,0.973697 0 0 1 0.96378,0.9737 L 6.22,119.04 H 1.93 A 1.88976,1.90921 0 0 1 0,117.15 v -10.18 a 0.96378,0.973697 0 0 1 0.897638,-1.03416 z"
   class="st2"
   id="path68"
   inkscape:connector-curvature="0"
   style="fill:#a3a3a3;fill-opacity:0.5;stroke:none;stroke-width:34;stroke-linecap:butt" />
				</g>
				<g
   id="shape5210-17"
   transform="translate(50.4724,-0.162283)">
					<title
   id="title71">Sheet.5210</title>
					<path
   d="m 0.96,106.09 h 4.3 a 0.96378,0.973697 0 0 1 0.96378,0.95461 L 6.22,117.13 a 1.88976,1.90921 0 0 1 -1.89,1.91 H 0 v -11.93 a 0.96378,0.973697 0 0 1 0.894488,-1.04052 z"
   class="st1"
   id="path73"
   inkscape:connector-curvature="0"
   style="fill:#a3a3a3;stroke:none;stroke-width:34;stroke-linecap:butt" />
				</g>
				<g
   id="shape5211-19"
   transform="translate(50.4724,-0.162283)">
					<title
   id="title76">Sheet.5211</title>
					<path
   d="m 0.96,106.09 h 4.3 a 0.96378,0.973697 0 0 1 0.96378,0.95461 L 6.22,117.13 a 1.88976,1.90921 0 0 1 -1.89,1.91 H 0 v -11.93 a 0.96378,0.973697 0 0 1 0.894488,-1.04052 z"
   class="st2"
   id="path78"
   inkscape:connector-curvature="0"
   style="fill:#a3a3a3;fill-opacity:0.5;stroke:none;stroke-width:34;stroke-linecap:butt" />
				</g>
				<g
   id="shape5212-21">
					<title
   id="title81">Sheet.5212</title>
					<path
   d="m 0,117.11 v -4.18 h 56.56 v 4.2 a 1.88976,1.90921 0 0 1 -1.89,1.91 H 1.89 A 1.88976,1.90921 0 0 1 0,117.11 Z"
   class="st3"
   id="path83"
   inkscape:connector-curvature="0"
   style="fill:#949494;stroke:none;stroke-width:34;stroke-linecap:butt" />
				</g>
				<g
   id="shape5213-23"
   transform="translate(17.1303,-18.1693)">
					<title
   id="title86">Sheet.5213</title>
					<path
   d="m 31.49,111.14 -6.73,-6.88 a 0.333858,0.337294 -180 0 0 -0.466142,-0.0605 0.330709,0.334112 -180 0 0 -0.125984,0.3182 L 24.17,108.75 a 0.314961,0.318202 0 0 1 -0.289764,0.3723 L 7.53,109.12 a 3.89606,3.93615 -180 0 0 -3.07,-1.54 c -0.14,0 -0.27,-0.01 -0.4,-0.01 a 4.07559,4.11753 -180 0 0 -0.38,8.21 c 0.13,0.01 0.26,0.02 0.39,0.02 0.13,0 0.26,0 0.39,-0.02 a 4.0063,4.04752 -180 0 0 3.11,-1.57 h 16.24 a 0.333858,0.337294 0 0 1 0.314961,0.29911 L 24.13,118.69 a 0.337008,0.340476 -180 0 0 0.314961,0.35002 0.314961,0.318202 -180 0 0 0.258268,-0.1241 L 31.45,112.14 a 0.740157,0.747774 -180 0 0 0.04095,-0.99915 z"
   class="st4"
   id="path88"
   inkscape:connector-curvature="0"
   style="fill:url(#grad0-26);stroke:none;stroke-width:34;stroke-linecap:butt" />
				</g>
				<g
   id="shape5214-27"
   transform="translate(8.64882,-27.0121)">
					<title
   id="title91">Sheet.5214</title>
					<path
   d="m 0,109.23 v 9.81 h 6.15 a 6.52913,6.59632 0 0 1 5.14,-5.05 v -6.37 H 1.57 A 1.5748,1.59101 -180 0 0 0,109.23 Z"
   class="st5"
   id="path93"
   inkscape:connector-curvature="0"
   style="fill:url(#grad0-30);stroke:none;stroke-width:34;stroke-linecap:butt" />
				</g>
				<g
   id="shape5215-31"
   transform="translate(22.5984,-30.6174)">
					<title
   id="title96">Sheet.5215</title>
					<path
   d="M 9.71,111.24 H 0 v 6.36 a 6.48504,6.55177 0 0 1 3.12,1.44 h 8.17 v -6.21 a 1.5748,1.59101 -180 0 0 -1.58,-1.59 z"
   class="st6"
   id="path98"
   inkscape:connector-curvature="0"
   style="fill:url(#grad0-34);stroke:none;stroke-width:34;stroke-linecap:butt" />
				</g>
				<g
   id="shape5216-35"
   transform="translate(22.5984,-12.6899)">
					<title
   id="title101">Sheet.5216</title>
					<path
   d="m 0,112.74 v 6.3 h 9.71 a 1.5748,1.59101 -180 0 0 1.58,-1.59 v -6.17 H 3.16 A 6.44409,6.5104 0 0 1 0,112.74 Z"
   class="st7"
   id="path103"
   inkscape:connector-curvature="0"
   style="fill:url(#grad0-38);stroke:none;stroke-width:34;stroke-linecap:butt" />
				</g>
				<g
   id="shape5217-39"
   transform="translate(8.64882,-12.6899)">
					<title
   id="title106">Sheet.5217</title>
					<path
   d="M 6.15,107.64 H 0 v 9.81 a 1.5748,1.59101 -180 0 0 1.57,1.59 h 9.72 v -6.33 a 6.4126,6.47858 0 0 1 -5.14,-5.07 z"
   class="st8"
   id="path108"
   inkscape:connector-curvature="0"
   style="fill:url(#grad0-42);stroke:none;stroke-width:34;stroke-linecap:butt" />
				</g>
			</g>
		</g>
	</g>
</svg>
